X: 37966
T: Spanky's Farewell
R: reel
M: 4/4
K: Gminor
|:G2 dG BAGA|BdAF D3 D|E2 GE FGAc|dfdB cBAB|
G2 dG BAGA|BdAF D3 D|E2 GE FGAc|dDFA G4:|
|:g2 fg dB ~B2|fcdf BcAF|E2 GE FGAc|dfdB cdef|
g2 fg dB ~B2|fcdf BcAF|E2 GE FGAc|1 dDFA G4:|2 dDFA GABA||

